X:17
M:6/8
L:1/8
K:C
c>eg ceg|(c/B/c/d/)e/f/ gec|cec' (a/g/)f/e/d/c/|deg ~a2 c'|
c>eg ceg|(c/B/c/d/e/f/) gec|(f/e/)d/c/B/A/ GF/E/D/C/|DEG A2e|c>eg ceg|
(c/B/c/d/e/f/) gec|cec' (a/g/)f/e/d/c/|deg ~a2c'|ceg (e<c)e|(d<B)d c>de|
(CE)E (EA)c|B>A^G A2c||

